icons/svg/shields/h_barrier_lift_gate_shield.svg

<?xml version="1.0" encoding="UTF-8" standalone="no"?>
<!-- Created with Inkscape (http://www.inkscape.org/) -->

<svg
   xmlns:dc="http://purl.org/dc/elements/1.1/"
   xmlns:cc="http://creativecommons.org/ns#"
   xmlns:rdf="http://www.w3.org/1999/02/22-rdf-syntax-ns#"
   xmlns:svg="http://www.w3.org/2000/svg"
   xmlns="http://www.w3.org/2000/svg"
   xmlns:sodipodi="http://sodipodi.sourceforge.net/DTD/sodipodi-0.dtd"
   xmlns:inkscape="http://www.inkscape.org/namespaces/inkscape"
   version="1.0"
   width="16"
   height="16"
   id="svg2"
   sodipodi:version="0.32"
   inkscape:version="0.91 r13725"
   sodipodi:docname="h_barrier_lift_gate_shield.svg"
   inkscape:output_extension="org.inkscape.output.svg.inkscape">
  <metadata
     id="metadata10">
    <rdf:RDF>
      <cc:Work
         rdf:about="">
        <dc:format>image/svg+xml</dc:format>
        <dc:type
           rdf:resource="http://purl.org/dc/dcmitype/StillImage" />
        <cc:license
           rdf:resource="http://web.resource.org/cc/PublicDomain" />
        <dc:language>en</dc:language>
        <dc:title />
      </cc:Work>
    </rdf:RDF>
  </metadata>
  <sodipodi:namedview
     inkscape:window-height="1006"
     inkscape:window-width="1920"
     inkscape:pageshadow="2"
     inkscape:pageopacity="0.0"
     guidetolerance="10.0"
     gridtolerance="10.0"
     objecttolerance="10.0"
     borderopacity="1.0"
     bordercolor="#666666"
     pagecolor="#ffffff"
     id="base"
     showgrid="false"
     inkscape:zoom="32"
     inkscape:cx="5.875317"
     inkscape:cy="7.2647617"
     inkscape:window-x="1920"
     inkscape:window-y="0"
     inkscape:current-layer="svg2"
     inkscape:window-maximized="1" />
  <defs
     id="defs4">
    <inkscape:perspective
       sodipodi:type="inkscape:persp3d"
       inkscape:vp_x="0 : 290 : 1"
       inkscape:vp_y="0 : 1000 : 0"
       inkscape:vp_z="580 : 290 : 1"
       inkscape:persp3d-origin="290 : 193.33333 : 1"
       id="perspective12" />
    <style
       type="text/css"
       id="style6">
   
    .fil0 {fill:#EF7900}
   
  </style>
    <inkscape:perspective
       id="perspective6807"
       inkscape:persp3d-origin="29.116032 : 19.410688 : 1"
       inkscape:vp_z="58.232063 : 29.116032 : 1"
       inkscape:vp_y="0 : 1000 : 0"
       inkscape:vp_x="0 : 29.116032 : 1"
       sodipodi:type="inkscape:persp3d" />
    <inkscape:perspective
       id="perspective6954"
       inkscape:persp3d-origin="290 : 193.33333 : 1"
       inkscape:vp_z="580 : 290 : 1"
       inkscape:vp_y="0 : 1000 : 0"
       inkscape:vp_x="0 : 290 : 1"
       sodipodi:type="inkscape:persp3d" />
    <inkscape:perspective
       id="perspective2541"
       inkscape:persp3d-origin="240 : 160 : 1"
       inkscape:vp_z="480 : 240 : 1"
       inkscape:vp_y="0 : 1000 : 0"
       inkscape:vp_x="0 : 240 : 1"
       sodipodi:type="inkscape:persp3d" />
    <inkscape:perspective
       id="perspective2750"
       inkscape:persp3d-origin="215 : 143.33333 : 1"
       inkscape:vp_z="430 : 215 : 1"
       inkscape:vp_y="0 : 1000 : 0"
       inkscape:vp_x="0 : 215 : 1"
       sodipodi:type="inkscape:persp3d" />
    <inkscape:perspective
       id="perspective3730"
       inkscape:persp3d-origin="88.929146 : 101.19778 : 1"
       inkscape:vp_z="177.85829 : 151.79668 : 1"
       inkscape:vp_y="0 : 1000 : 0"
       inkscape:vp_x="0 : 151.79668 : 1"
       sodipodi:type="inkscape:persp3d" />
  </defs>
  <path
     style="color:#000000;font-style:normal;font-variant:normal;font-weight:normal;font-stretch:normal;font-size:medium;line-height:normal;font-family:Sans;-inkscape-font-specification:Sans;text-indent:0;text-align:start;text-decoration:none;text-decoration-line:none;letter-spacing:normal;word-spacing:normal;text-transform:none;direction:ltr;block-progression:tb;writing-mode:lr-tb;baseline-shift:baseline;text-anchor:start;clip-rule:nonzero;display:inline;overflow:visible;visibility:visible;opacity:0.81199999;isolation:auto;mix-blend-mode:normal;color-interpolation:sRGB;color-interpolation-filters:linearRGB;solid-color:#000000;solid-opacity:1;fill:#ebe7e4;fill-opacity:1;fill-rule:nonzero;stroke:none;stroke-width:0.78325456;stroke-linecap:butt;stroke-linejoin:miter;stroke-miterlimit:4;stroke-dasharray:none;stroke-dashoffset:0;stroke-opacity:1;marker:none;color-rendering:auto;image-rendering:auto;shape-rendering:auto;text-rendering:auto;enable-background:accumulate"
     d="M 3.1157375,2.9170688 C 2.631527,2.9171067 2.2918054,3.1247787 2.0442375,3.3724563 1.7968798,3.619814 1.58885,3.9596691 1.58885,4.4439563 l 0,7.2326247 c 0,0.484323 0.2077384,0.823961 0.4553875,1.0715 0.3362016,0.336202 0.7650683,0.4286 1.0715,0.4286 l 1.0447125,0 c 0.3064886,0 0.7350981,-0.09205 1.0715,-0.4286 0.2473293,-0.247329 0.4553875,-0.587233 0.4553875,-1.0715 l 0,-3.4555872 5.1699875,-1.1518625 c -0.124997,0.1969037 -0.294782,0.364509 -0.294662,0.6696875 l 0,4.0181252 c -2.25e-4,0.460397 0.175727,0.765262 0.4286,1.017925 0.252393,0.252393 0.751939,0.401929 0.991137,0.401812 l 1.232225,0 c 0.239025,1.4e-4 0.654718,-0.0384 1.017925,-0.401812 0.252393,-0.252393 0.428825,-0.557032 0.4286,-1.017925 l 0,-4.0181252 C 14.661375,7.278351 14.48534,6.9735092 14.23255,6.7208938 13.993782,6.4821259 13.687833,6.3365141 13.2682,6.3190813 13.693605,6.1897824 13.842318,6.1488096 14.1254,5.7833313 14.408482,5.417853 14.57325,4.820088 14.373183,4.2162626 14.124197,3.4647915 13.269227,3.0204258 12.652088,3.1045813 c 0.01254,-0.00201 -0.17305,0.029869 -0.160725,0.026788 0.0024,-5.926e-4 -0.01845,-0.00254 -0.02679,0 -0.03502,0.010647 -0.116855,0.030119 -0.10715,0.026787 l -6.6700875,1.5001 0,-0.2143 c 0,-0.4843442 -0.2077099,-0.8239321 -0.4553875,-1.0715 C 4.9845923,3.1250985 4.6446037,2.9171067 4.16045,2.9170688 Z"
     id="path4416"
     inkscape:connector-curvature="0"
     sodipodi:nodetypes="ccsscsscscccccccccccczscccccsccc" />
</svg>

<svg width="16" height="16" viewBox="0 0 16 16" fill="none" xmlns="http://www.w3.org/2000/svg">
<path opacity="0.812" d="M3.11574 2.91708C2.63153 2.91712 2.29181 3.12479 2.04424 3.37247C1.79688 3.61983 1.58885 3.95968 1.58885 4.44397V11.6766C1.58885 12.1609 1.79659 12.5006 2.04424 12.7481C2.38044 13.0843 2.80931 13.1767 3.11574 13.1767H4.16045C4.46694 13.1767 4.89555 13.0846 5.23195 12.7481C5.47928 12.5008 5.68734 12.1609 5.68734 11.6766V8.22101L10.8573 7.06915C10.7323 7.26605 10.5625 7.43365 10.5627 7.73883V11.757C10.5624 12.2174 10.7384 12.5222 10.9913 12.7749C11.2437 13.0273 11.7432 13.1768 11.9824 13.1767H13.2146C13.4537 13.1768 13.8693 13.1383 14.2326 12.7749C14.4849 12.5225 14.6614 12.2179 14.6612 11.757V7.73883C14.6614 7.27837 14.4853 6.97352 14.2326 6.72091C13.9938 6.48214 13.6878 6.33653 13.2682 6.3191C13.6936 6.1898 13.8423 6.14882 14.1254 5.78335C14.4085 5.41787 14.5733 4.8201 14.3732 4.21628C14.1242 3.46481 13.2692 3.02044 12.6521 3.1046C12.6646 3.10259 12.479 3.13447 12.4914 3.13138C12.4938 3.13079 12.4729 3.12884 12.4646 3.13138C12.4296 3.14203 12.3477 3.1615 12.3574 3.15817L5.68734 4.65827V4.44397C5.68734 3.95963 5.47963 3.62004 5.23195 3.37247C4.98459 3.12511 4.64461 2.91712 4.16045 2.91708H3.11574Z" fill="#EBE7E4"/>
</svg>
